Gruvbox-Plus-Dark/apps/scalable/cronopete_restore.svg

<svg width="256" height="256" viewBox="0 0 256 256" fill="none" xmlns="http://www.w3.org/2000/svg">
<g clip-path="url(#clip0)">
<g filter="url(#filter0_d)">
<path d="M165.685 11.947C239.74 11.947 250.324 22.5042 250.324 96.4908V155.742C250.324 229.728 239.74 240.285 165.685 240.285H90.3152C16.2595 240.285 5.67586 229.728 5.67586 155.742V96.4908C5.67586 22.5042 16.2595 11.947 90.3152 11.947H165.685Z" fill="url(#paint0_radial)"/>
</g>
<path opacity="0.4" fill-rule="evenodd" clip-rule="evenodd" d="M165.068 11.9512C169.396 11.9414 173.724 11.9905 178.052 12.0888C181.927 12.1674 185.803 12.3148 189.678 12.5407C193.131 12.7372 196.583 13.0221 200.026 13.3955C203.085 13.7295 206.144 14.1815 209.174 14.7415C211.889 15.2425 214.574 15.8812 217.22 16.6573C219.62 17.3549 221.971 18.2195 224.243 19.2412C226.358 20.1844 228.384 21.3044 230.302 22.5915C232.141 23.8294 233.863 25.2442 235.437 26.8063C237.001 28.3783 238.417 30.0878 239.656 31.925C240.945 33.8408 242.066 35.8647 243.02 37.9672C244.043 40.2466 244.909 42.5849 245.617 44.9723C246.394 47.6152 247.034 50.2973 247.535 53.009C248.096 56.035 248.548 59.0807 248.883 62.1362C249.257 65.5748 249.542 69.0135 249.739 72.462C249.965 76.3232 250.112 80.1941 250.201 84.0553C250.289 88.3781 250.339 92.701 250.329 97.0141V155.226C250.339 159.549 250.289 163.862 250.201 168.185C250.112 172.056 249.965 175.917 249.739 179.778C249.542 183.227 249.257 186.675 248.883 190.104C248.548 193.159 248.096 196.215 247.535 199.241C247.034 201.943 246.394 204.625 245.617 207.268C244.909 209.655 244.043 212.003 243.02 214.273C242.066 216.385 240.945 218.399 239.656 220.315C238.417 222.152 237.001 223.872 235.437 225.434C233.863 226.996 232.141 228.411 230.302 229.649C228.384 230.936 226.358 232.056 224.243 232.999C221.971 234.021 219.62 234.885 217.22 235.593C214.574 236.369 211.889 237.007 209.174 237.499C206.144 238.068 203.085 238.51 200.026 238.845C196.583 239.218 193.131 239.503 189.678 239.699C185.803 239.925 181.927 240.073 178.052 240.161C173.724 240.249 169.396 240.299 165.068 240.289H90.942C86.614 240.299 82.286 240.249 77.9581 240.161C74.0826 240.073 70.2071 239.925 66.3316 239.699C62.8791 239.503 59.4266 239.218 55.9839 238.845C52.9248 238.51 49.8657 238.068 46.8362 237.499C44.1213 237.007 41.4361 236.369 38.7901 235.593C36.39 234.885 34.0392 234.021 31.767 232.999C29.6522 232.056 27.6259 230.936 25.7079 229.649C23.8685 228.411 22.1471 226.996 20.5733 225.434C19.0094 223.872 17.5929 222.152 16.3536 220.315C15.065 218.399 13.9437 216.385 12.9896 214.273C11.9666 212.003 11.101 209.655 10.3928 207.268C9.61574 204.625 8.97638 201.943 8.47473 199.241C7.91406 196.215 7.4616 193.159 7.12716 190.104C6.75339 186.675 6.46813 183.227 6.27141 179.778C6.04518 175.917 5.89763 172.056 5.8091 168.185C5.72058 163.862 5.6714 159.549 5.68123 155.226V97.0141C5.6714 92.701 5.72058 88.3781 5.8091 84.0553C5.89763 80.1941 6.04518 76.3232 6.27141 72.462C6.46813 69.0135 6.75339 65.5748 7.12716 62.1362C7.4616 59.0807 7.91406 56.035 8.47473 53.009C8.97638 50.2973 9.61574 47.6152 10.3928 44.9723C11.101 42.5849 11.9666 40.2466 12.9896 37.9672C13.9437 35.8647 15.065 33.8408 16.3536 31.925C17.5929 30.0878 19.0094 28.3783 20.5733 26.8063C22.1471 25.2442 23.8685 23.8294 25.7079 22.5915C27.6259 21.3044 29.6522 20.1844 31.767 19.2412C34.0392 18.2195 36.39 17.3549 38.7901 16.6573C41.4361 15.8812 44.1213 15.2425 46.8362 14.7415C49.8657 14.1815 52.9248 13.7295 55.9839 13.3955C59.4266 13.0221 62.8791 12.7372 66.3316 12.5407C70.2071 12.3148 74.0826 12.1674 77.9581 12.0888C82.286 11.9905 86.614 11.9414 90.942 11.9512H165.068ZM165.078 15.9598C169.376 15.9499 173.675 15.9991 177.973 16.0875C181.8 16.1759 185.626 16.3233 189.452 16.5394C192.836 16.7359 196.219 17.011 199.583 17.3843C202.554 17.6987 205.515 18.131 208.446 18.6812C211.023 19.1528 213.58 19.7619 216.099 20.4988C218.322 21.1472 220.495 21.9529 222.6 22.896C224.509 23.7508 226.338 24.7627 228.069 25.9221C229.692 27.0126 231.207 28.2604 232.594 29.6457C233.981 31.031 235.23 32.544 236.332 34.1651C237.492 35.8942 238.506 37.7118 239.361 39.608C240.306 41.7203 241.112 43.8916 241.761 46.1021C242.509 48.6173 243.109 51.1619 243.591 53.736C244.132 56.6638 244.565 59.6112 244.889 62.5783C245.263 65.9384 245.539 69.3083 245.735 72.688C245.952 76.5098 246.109 80.3218 246.188 84.1437C246.276 88.4371 246.325 92.7207 246.325 97.0141V155.226C246.325 159.519 246.276 163.803 246.188 168.096C246.109 171.918 245.952 175.74 245.735 179.552C245.539 182.932 245.263 186.302 244.889 189.672C244.565 192.629 244.132 195.576 243.591 198.504C243.109 201.078 242.509 203.623 241.761 206.138C241.112 208.358 240.306 210.52 239.361 212.632C238.506 214.528 237.492 216.356 236.332 218.075C235.23 219.706 233.981 221.219 232.594 222.604C231.207 223.98 229.692 225.227 228.069 226.318C226.338 227.477 224.509 228.489 222.6 229.344C220.495 230.297 218.322 231.093 216.099 231.741C213.58 232.478 211.023 233.087 208.446 233.559C205.515 234.109 202.554 234.541 199.583 234.865C196.219 235.229 192.836 235.514 189.452 235.701C185.626 235.917 181.8 236.074 177.973 236.153C173.675 236.251 169.376 236.29 165.078 236.29C165.078 236.29 165.078 236.29 165.068 236.29H90.942C90.9321 236.29 90.9321 236.29 90.9321 236.29C86.6337 236.29 82.3352 236.251 78.0368 236.153C74.2105 236.074 70.3842 235.917 66.5579 235.701C63.1742 235.514 59.7905 235.229 56.4265 234.865C53.456 234.541 50.4952 234.109 47.564 233.559C44.9869 233.087 42.4295 232.478 39.9114 231.741C37.6884 231.093 35.5146 230.297 33.4097 229.344C31.5014 228.489 29.6719 227.477 27.9407 226.318C26.3177 225.227 24.8029 223.98 23.416 222.604C22.0291 221.219 20.7799 219.706 19.6782 218.075C18.5176 216.356 17.5044 214.528 16.6487 212.632C15.7044 210.52 14.8978 208.358 14.2486 206.138C13.5011 203.623 12.901 201.078 12.4191 198.504C11.8781 195.576 11.4453 192.629 11.1207 189.672C10.7469 186.302 10.4715 182.932 10.2748 179.552C10.0584 175.74 9.90099 171.918 9.8223 168.096C9.73377 163.803 9.68459 159.519 9.68459 155.226V97.0141C9.68459 92.7207 9.73377 88.4371 9.8223 84.1437C9.90099 80.3218 10.0584 76.5098 10.2748 72.688C10.4715 69.3083 10.7469 65.9384 11.1207 62.5783C11.4453 59.6112 11.8781 56.6638 12.4191 53.736C12.901 51.1619 13.5011 48.6173 14.2486 46.1021C14.8978 43.8916 15.7044 41.7203 16.6487 39.608C17.5044 37.7118 18.5176 35.8942 19.6782 34.1651C20.7799 32.544 22.0291 31.031 23.416 29.6457C24.8029 28.2604 26.3177 27.0126 27.9407 25.9221C29.6719 24.7627 31.5014 23.7508 33.4097 22.896C35.5146 21.9529 37.6884 21.1472 39.9114 20.4988C42.4295 19.7619 44.9869 19.1528 47.564 18.6812C50.4952 18.131 53.456 17.6987 56.4265 17.3843C59.7905 17.011 63.1742 16.7359 66.5579 16.5394C70.3842 16.3233 74.2105 16.1759 78.0368 16.0875C82.3352 15.9991 86.6337 15.9499 90.9321 15.9598C90.9321 15.9598 90.9321 15.9598 90.942 15.9598H165.068C165.078 15.9598 165.078 15.9598 165.078 15.9598Z" fill="url(#paint1_linear)"/>
<g opacity="0.4" filter="url(#filter1_f)">
<path d="M54 87.0075L66.8088 134.81L114.612 122.002L97.294 112.003C108.338 92.8748 132.797 86.3209 151.926 97.3648C171.054 108.409 177.608 132.868 166.565 151.997C155.521 171.125 131.061 177.679 111.933 166.635C105.833 163.099 100.776 158.013 97.2751 151.893L67.7717 159.798C73.7221 173.581 83.9464 185.085 96.9351 192.612C130.41 211.938 173.214 200.469 192.541 166.994C211.868 133.519 200.398 90.7151 166.923 71.3883C133.449 52.0616 90.6444 63.5309 71.3176 97.0058L54 87.0075Z" fill="#282828"/>
</g>
<path d="M54 83.0075L66.8088 130.81L114.612 118.002L97.294 108.003C108.338 88.8748 132.797 82.3209 151.926 93.3648C171.054 104.409 177.608 128.868 166.565 147.997C155.521 167.125 131.061 173.679 111.933 162.635C105.833 159.099 100.776 154.013 97.2751 147.893L67.7717 155.798C73.7221 169.581 83.9464 181.085 96.9351 188.612C130.41 207.938 173.214 196.469 192.541 162.994C211.868 129.519 200.398 86.7151 166.923 67.3883C133.449 48.0616 90.6444 59.5309 71.3176 93.0058L54 83.0075Z" fill="url(#paint2_linear)"/>
<g opacity="0.4" filter="url(#filter2_f)">
<path d="M126.32 240.288L126 211.494C126 137.507 136.584 126 210.639 126H248.648" fill="#282828"/>
</g>
<path d="M146.981 240.533L129.235 240.395L128.875 232.289C128.427 222.201 128.898 189.86 129.607 182.052C130.892 167.904 133.047 158.74 136.92 150.966C144.316 136.118 157.752 129.78 186.519 127.57C189.982 127.304 205.835 126.942 221.75 126.766L250.685 126.446L250.678 150.617C250.668 182.808 249.912 193.582 246.801 205.9C242.946 221.166 235.296 230.076 221.947 234.847C208.546 239.636 192.096 240.884 146.982 240.533H146.981Z" fill="url(#paint3_linear)"/>
<path fill-rule="evenodd" clip-rule="evenodd" d="M198.176 152V164.352H179.399C171.397 164.352 164.002 168.811 160.001 175.612C156 182.413 156 191.909 160.001 198.71C163.81 205.163 170.693 209.281 178.283 209.647C172.558 209.085 168.666 206.087 168.667 200.441C168.667 194.371 173.215 193.315 179.399 193.176H198.176V203.882L227 177.941L198.176 152Z" fill="url(#paint4_linear)"/>
</g>
<defs>
<filter id="filter0_d" x="-4.32414" y="5.94696" width="264.648" height="248.338" filterUnits="userSpaceOnUse" color-interpolation-filters="sRGB">
<feFlood flood-opacity="0" result="BackgroundImageFix"/>
<feColorMatrix in="SourceAlpha" type="matrix" values="0 0 0 0 0 0 0 0 0 0 0 0 0 0 0 0 0 0 127 0"/>
<feOffset dy="4"/>
<feColorMatrix type="matrix" values="0 0 0 0 0 0 0 0 0 0 0 0 0 0 0 0 0 0 0.4 0"/>
<feBlend mode="normal" in2="BackgroundImageFix" result="effect1_dropShadow"/>
<feBlend mode="normal" in="SourceGraphic" in2="effect1_dropShadow" result="shape"/>
</filter>
<radialGradient id="paint0_radial" cx="0" cy="0" r="1" gradientUnits="userSpaceOnUse" gradientTransform="translate(128 126) rotate(139.497) scale(126.254 135.272)">
<stop offset="0.110497" stop-color="#8f3f71"/>
<stop offset="1" stop-color="#b16286"/>
</radialGradient>
<linearGradient id="paint1_linear" x1="132.082" y1="11.95" x2="132.082" y2="240.29" gradientUnits="userSpaceOnUse">
<stop stop-color="ebdbb2"/>
<stop offset="0.125" stop-color="ebdbb2" stop-opacity="0.0980392"/>
<stop offset="0.925" stop-opacity="0.0980392"/>
<stop offset="1" stop-opacity="0.498039"/>
</linearGradient>
<linearGradient id="paint2_linear" x1="54" y1="58" x2="54" y2="198" gradientUnits="userSpaceOnUse">
<stop offset="1e-07" stop-color="#8ec07c"/>
<stop offset="1" stop-color="#b8bb26"/>
</linearGradient>
<linearGradient id="paint3_linear" x1="128.7" y1="126.446" x2="128.7" y2="240.588" gradientUnits="userSpaceOnUse">
<stop offset="1e-07" stop-color="#504945"/>
<stop offset="1" stop-color="#3c3836"/>
</linearGradient>
<linearGradient id="paint4_linear" x1="192" y1="209.648" x2="192" y2="152" gradientUnits="userSpaceOnUse">
<stop offset="1e-07" stop-color="#cc241d"/>
<stop offset="1" stop-color="#fb4934"/>
</linearGradient>
<clipPath id="clip0">
<rect width="256" height="256" fill="ebdbb2"/>
</clipPath>
</defs>
</svg>

<svg width="256" height="256" fill="none" version="1.1" viewBox="0 0 256 256" xmlns="http://www.w3.org/2000/svg">
  <path d="m165.7 11.95c74.06 0 84.64 10.56 84.64 84.54v59.25c0 73.99-10.58 84.54-84.64 84.54h-75.37c-74.06 0-84.64-10.56-84.64-84.54v-59.25c0-73.99 10.58-84.54 84.64-84.54h75.37z" fill="url(#paint0_radial)"/>
  <path d="m165.1 11.95c4.328-0.0098 8.656 0.0393 12.98 0.1376 3.875 0.0786 7.751 0.226 11.63 0.4519 3.453 0.1965 6.905 0.4814 10.35 0.8548 3.059 0.334 6.118 0.786 9.148 1.346 2.715 0.501 5.4 1.14 8.046 1.916 2.4 0.6976 4.751 1.562 7.023 2.584 2.115 0.9432 4.141 2.063 6.059 3.35 1.839 1.238 3.561 2.653 5.135 4.215 1.564 1.572 2.98 3.282 4.219 5.119 1.289 1.916 2.41 3.94 3.364 6.042 1.023 2.279 1.889 4.618 2.597 7.005 0.777 2.643 1.417 5.325 1.918 8.037 0.561 3.026 1.013 6.072 1.348 9.127 0.374 3.439 0.659 6.877 0.856 10.33 0.226 3.861 0.373 7.732 0.462 11.59 0.088 4.323 0.138 8.646 0.128 12.96v58.21c0.01 4.323-0.04 8.636-0.128 12.96-0.089 3.871-0.236 7.732-0.462 11.59-0.197 3.449-0.482 6.897-0.856 10.33-0.335 3.055-0.787 6.111-1.348 9.137-0.501 2.702-1.141 5.384-1.918 8.027-0.708 2.387-1.574 4.735-2.597 7.005-0.954 2.112-2.075 4.126-3.364 6.042-1.239 1.837-2.655 3.557-4.219 5.119-1.574 1.562-3.296 2.977-5.135 4.215-1.918 1.287-3.944 2.407-6.059 3.35-2.272 1.022-4.623 1.886-7.023 2.594-2.646 0.776-5.331 1.414-8.046 1.906-3.03 0.569-6.089 1.011-9.148 1.346-3.443 0.373-6.895 0.658-10.35 0.854-3.875 0.226-7.751 0.374-11.63 0.462-4.328 0.088-8.656 0.138-12.98 0.128h-74.13c-4.328 0.01-8.656-0.04-12.98-0.128-3.876-0.088-7.751-0.236-11.63-0.462-3.452-0.196-6.905-0.481-10.35-0.854-3.059-0.335-6.118-0.777-9.148-1.346-2.715-0.492-5.4-1.13-8.046-1.906-2.4-0.708-4.751-1.572-7.023-2.594-2.115-0.943-4.141-2.063-6.059-3.35-1.839-1.238-3.561-2.653-5.135-4.215-1.564-1.562-2.98-3.282-4.22-5.119-1.289-1.916-2.41-3.93-3.364-6.042-1.023-2.27-1.889-4.618-2.597-7.005-0.7771-2.643-1.416-5.325-1.918-8.027-0.5607-3.026-1.013-6.082-1.348-9.137-0.3738-3.429-0.659-6.877-0.8558-10.33-0.2262-3.861-0.3738-7.722-0.4623-11.59-0.08852-4.323-0.1377-8.636-0.1279-12.96v-58.21c-0.00983-4.313 0.03935-8.636 0.1279-12.96 0.08853-3.861 0.2361-7.732 0.4623-11.59 0.1967-3.448 0.482-6.887 0.8558-10.33 0.3344-3.056 0.7869-6.101 1.348-9.127 0.5016-2.712 1.141-5.394 1.918-8.037 0.7082-2.387 1.574-4.726 2.597-7.005 0.9541-2.102 2.075-4.126 3.364-6.042 1.239-1.837 2.656-3.547 4.22-5.119 1.574-1.562 3.295-2.977 5.135-4.215 1.918-1.287 3.944-2.407 6.059-3.35 2.272-1.022 4.623-1.886 7.023-2.584 2.646-0.7761 5.331-1.415 8.046-1.916 3.03-0.56 6.089-1.012 9.148-1.346 3.443-0.3734 6.895-0.6583 10.35-0.8548 3.876-0.2259 7.751-0.3733 11.63-0.4519 4.328-0.0983 8.656-0.1474 12.98-0.1376h74.13zm0.01 4.009c4.298-0.0099 8.597 0.0393 12.9 0.1277 3.827 0.0884 7.653 0.2358 11.48 0.4519 3.384 0.1965 6.767 0.4716 10.13 0.8449 2.971 0.3144 5.932 0.7467 8.863 1.297 2.577 0.4716 5.134 1.081 7.653 1.818 2.223 0.6484 4.396 1.454 6.501 2.397 1.909 0.8548 3.738 1.867 5.469 3.026 1.623 1.09 3.138 2.338 4.525 3.724s2.636 2.898 3.738 4.519c1.16 1.729 2.174 3.547 3.029 5.443 0.945 2.112 1.751 4.284 2.4 6.494 0.748 2.515 1.348 5.06 1.83 7.634 0.541 2.928 0.974 5.875 1.298 8.842 0.374 3.36 0.65 6.73 0.846 10.11 0.217 3.822 0.374 7.634 0.453 11.46 0.088 4.293 0.137 8.577 0.137 12.87v58.21c0 4.293-0.049 8.577-0.137 12.87-0.079 3.822-0.236 7.644-0.453 11.46-0.196 3.38-0.472 6.75-0.846 10.12-0.324 2.957-0.757 5.904-1.298 8.832-0.482 2.574-1.082 5.119-1.83 7.634-0.649 2.22-1.455 4.382-2.4 6.494-0.855 1.896-1.869 3.724-3.029 5.443-1.102 1.631-2.351 3.144-3.738 4.529-1.387 1.376-2.902 2.623-4.525 3.714-1.731 1.159-3.56 2.171-5.469 3.026-2.105 0.953-4.278 1.749-6.501 2.397-2.519 0.737-5.076 1.346-7.653 1.818-2.931 0.55-5.892 0.982-8.863 1.306-3.364 0.364-6.747 0.649-10.13 0.836-3.826 0.216-7.652 0.373-11.48 0.452-4.298 0.098-8.597 0.137-12.9 0.137h-0.01-74.13-0.0099c-4.298 0-8.597-0.039-12.9-0.137-3.826-0.079-7.653-0.236-11.48-0.452-3.384-0.187-6.767-0.472-10.13-0.836-2.97-0.324-5.931-0.756-8.862-1.306-2.577-0.472-5.134-1.081-7.653-1.818-2.223-0.648-4.397-1.444-6.502-2.397-1.908-0.855-3.738-1.867-5.469-3.026-1.623-1.091-3.138-2.338-4.525-3.714-1.387-1.385-2.636-2.898-3.738-4.529-1.161-1.719-2.174-3.547-3.03-5.443-0.9443-2.112-1.751-4.274-2.4-6.494-0.7475-2.515-1.348-5.06-1.83-7.634-0.541-2.928-0.9738-5.875-1.298-8.832-0.3738-3.37-0.6492-6.74-0.8459-10.12-0.2164-3.812-0.3738-7.634-0.4525-11.46-0.08853-4.293-0.1377-8.577-0.1377-12.87v-58.21c0-4.293 0.04918-8.577 0.1377-12.87 0.07869-3.822 0.2361-7.634 0.4525-11.46 0.1967-3.38 0.4721-6.75 0.8459-10.11 0.3246-2.967 0.7574-5.914 1.298-8.842 0.4819-2.574 1.082-5.119 1.83-7.634 0.6492-2.21 1.456-4.382 2.4-6.494 0.8557-1.896 1.869-3.714 3.03-5.443 1.102-1.621 2.351-3.134 3.738-4.519s2.902-2.633 4.525-3.724c1.731-1.159 3.561-2.171 5.469-3.026 2.105-0.9431 4.279-1.749 6.502-2.397 2.518-0.7369 5.076-1.346 7.653-1.818 2.931-0.5502 5.892-0.9825 8.862-1.297 3.364-0.3733 6.748-0.6484 10.13-0.8449 3.826-0.2161 7.653-0.3635 11.48-0.4519 4.298-0.0884 8.597-0.1376 12.9-0.1277h0.0099 74.13 0.01z" clip-rule="evenodd" fill="url(#paint1_linear)" fill-rule="evenodd" opacity=".4"/>
  <g filter="url(#filter1_f)" opacity=".4">
    <path d="m54 87.01 12.81 47.8 47.8-12.81-17.32-9.999c11.04-19.13 35.5-25.68 54.63-14.64 19.13 11.04 25.68 35.5 14.64 54.63-11.04 19.13-35.5 25.68-54.63 14.64-6.1-3.536-11.16-8.622-14.66-14.74l-29.5 7.905c5.95 13.78 16.17 25.29 29.16 32.81 33.47 19.33 76.28 7.857 95.61-25.62s7.857-76.28-25.62-95.61c-33.47-19.33-76.28-7.857-95.61 25.62l-17.32-9.998z" fill="#282828"/>
  </g>
  <path d="m54 83.01 12.81 47.8 47.8-12.81-17.32-9.999c11.04-19.13 35.5-25.68 54.63-14.64 19.13 11.04 25.68 35.5 14.64 54.63-11.04 19.13-35.5 25.68-54.63 14.64-6.1-3.536-11.16-8.622-14.66-14.74l-29.5 7.905c5.95 13.78 16.17 25.29 29.16 32.81 33.47 19.33 76.28 7.857 95.61-25.62s7.857-76.28-25.62-95.61c-33.47-19.33-76.28-7.857-95.61 25.62l-17.32-9.998z" fill="url(#paint2_linear)"/>
  <g transform="translate(-.007785 .0009062)" filter="url(#filter2_f)" opacity=".4">
    <path d="m128.9 240.3-2.555-2e-3 -0.3266-28.79c0-73.99 10.58-85.49 84.64-85.49h38.01" fill="#282828"/>
  </g>
  <path d="m146.6 240.4-17.75-0.138-0.36-8.106c-0.448-10.09 0.023-42.43 0.732-50.24 1.285-14.15 3.44-23.31 7.313-31.09 7.396-14.85 20.83-21.19 49.6-23.4 3.463-0.266 19.32-0.628 35.23-0.804l28.94-0.32-7e-3 24.17c-0.01 32.19-0.766 42.96-3.877 55.28-3.855 15.27-11.5 24.18-24.85 28.95-13.4 4.789-29.85 6.037-74.96 5.686z" fill="url(#paint3_linear)"/>
  <path d="m198.2 152v12.35h-18.78c-8.002 0-15.4 4.459-19.4 11.26s-4.001 16.3 0 23.1c3.809 6.453 10.69 10.57 18.28 10.94-5.725-0.562-9.617-3.56-9.616-9.206 0-6.07 4.548-7.126 10.73-7.265h18.78v10.71l28.82-25.94-28.82-25.94z" clip-rule="evenodd" fill="url(#paint4_linear)" fill-rule="evenodd"/>
  <defs>
    <radialGradient id="paint0_radial" cx="0" cy="0" r="1" gradientTransform="translate(128 126) rotate(139.5) scale(126.3 135.3)" gradientUnits="userSpaceOnUse">
      <stop stop-color="#8f3f71" offset=".1105"/>
      <stop stop-color="#b16286" offset="1"/>
    </radialGradient>
    <linearGradient id="paint1_linear" x1="132.1" x2="132.1" y1="11.95" y2="240.3" gradientUnits="userSpaceOnUse">
      <stop stop-color="ebdbb2" offset="0"/>
      <stop stop-color="ebdbb2" stop-opacity=".09804" offset=".125"/>
      <stop stop-opacity=".09804" offset=".925"/>
      <stop stop-opacity=".498" offset="1"/>
    </linearGradient>
    <linearGradient id="paint2_linear" x1="54" x2="54" y1="58" y2="198" gradientUnits="userSpaceOnUse">
      <stop stop-color="#8ec07c" offset="1e-7"/>
      <stop stop-color="#b8bb26" offset="1"/>
    </linearGradient>
    <linearGradient id="paint3_linear" x1="128.7" x2="128.7" y1="126.4" y2="240.6" gradientTransform="translate(-.361 -.106)" gradientUnits="userSpaceOnUse">
      <stop stop-color="#504945" offset="1e-7"/>
      <stop stop-color="#3c3836" offset="1"/>
    </linearGradient>
    <linearGradient id="paint4_linear" x1="192" x2="192" y1="209.6" y2="152" gradientUnits="userSpaceOnUse">
      <stop stop-color="#cc241d" offset="1e-7"/>
      <stop stop-color="#fb4934" offset="1"/>
    </linearGradient>
  </defs>
</svg>
